X:297
T:Blaze Away 2 
C:Joe Buchanan's Scottish Tome - Page 457.0
I:457 0
Z:Carl Allison
R:Jig
L:1/8
M:6/8
K:F
c =B2 c | A3 F3 | E3 F3 | D6 | C3 (A,2 B,) | 
C3 D3 | E3 F3 | B6- | B2 B (A2 B) | 
A3 G3 | c3 A3 | G3 F3- | F2 F (E2 F) | 
G3 D3 | E3 F3 | A2 G (^F2 G) | c2 c (=B2 c) | 
A3 F3 | E3 F3 | D6 | C3 (A,2 B,) |
C3 F3 | B3 A3 | G6 | D6 | 
D3 B3 | A3 G3 | c3 A3- | A2 A (B2 A) | 
A3 B3 | D3 E3 | F6- | F2 z [cf]2 E^F^G |]
A2 A A^GA | =B^cB A2 e^f^g | a2 a a^ga | =b^c'b =GA=B | 
=c2 c c^Bc | ded c2 fa=b | a2 a a^ga | bc'ba2 z | 
B3-BA=G | A2 e a2 z | B3-BA=G | A2 e a2 z | 
A3- AB^B | c3- cd^d | f2 e ^d e | a2 c' (=b2 c') | 

